packages/core/src/svgs/tokens/mono/TKO.svg

<svg width="24" height="24" viewBox="0 0 24 24" fill="none" xmlns="http://www.w3.org/2000/svg">
<path fill-rule="evenodd" clip-rule="evenodd" d="M15.3884 5.42158C14.57 4.8433 14.1388 3.68318 14.7118 2.86075C15.1943 2.16833 16.1026 1.88596 16.8315 2.31247C19.5788 3.92086 21.4125 6.79466 21.4125 10.2309C21.4125 14.8254 18.1197 18.6523 13.7647 19.4782V20.2313C13.7647 20.6994 13.5788 21.1482 13.2477 21.4792C12.9167 21.8101 12.4679 21.9961 11.9998 21.9961C11.5317 21.9961 11.0828 21.8101 10.7519 21.4792C10.4209 21.1482 10.2349 20.6994 10.2349 20.2313V19.4782C5.87982 18.6523 2.58716 14.8261 2.58716 10.2303C2.58716 6.74818 4.47675 3.79908 7.2876 2.19422C8.02531 1.77359 8.93422 2.06832 9.41312 2.76898C9.98965 3.61258 9.52843 4.79329 8.68479 5.36982C7.89292 5.90935 7.24497 6.63432 6.7974 7.48156C6.34984 8.32882 6.11622 9.27262 6.11689 10.2309C6.11689 12.8646 7.84824 15.0948 10.2349 15.8443V14.3484C10.2349 13.8803 10.4209 13.4313 10.7519 13.1003C11.0828 12.7694 11.5317 12.5834 11.9998 12.5834C12.4679 12.5834 12.9167 12.7694 13.2477 13.1003C13.5788 13.4313 13.7647 13.8803 13.7647 14.3484V15.8438C16.1513 15.0943 17.8827 12.8641 17.8827 10.2303C17.8834 9.28731 17.657 8.35807 17.2228 7.521C16.7888 6.68394 16.1596 5.96424 15.3884 5.42158ZM13.7647 10.2361C13.7647 10.7042 13.5788 11.1532 13.2477 11.4841C12.9167 11.8151 12.4679 12.0011 11.9998 12.0011C11.5317 12.0011 11.0828 11.8151 10.7519 11.4841C10.4209 11.1532 10.2349 10.7042 10.2349 10.2361C10.2349 9.76802 10.4209 9.31915 10.7519 8.9882C11.0828 8.65722 11.5317 8.47129 11.9998 8.47129C12.4679 8.47129 12.9167 8.65722 13.2477 8.9882C13.5788 9.31915 13.7647 9.76802 13.7647 10.2361Z" fill="white"/>
<path fill-rule="evenodd" clip-rule="evenodd" d="M12 22.0001C12.4681 22.0001 12.9169 21.8141 13.2479 21.4832C13.579 21.1522 13.7649 20.7032 13.7649 20.2351V19.4845C18.12 18.6615 21.4127 14.8505 21.4127 10.2784C21.4127 8.67016 21.0018 7.08877 20.2188 5.68408C19.4359 4.27941 18.307 3.09811 16.9393 2.25229C16.1616 1.77224 15.1786 2.0964 14.6803 2.86235C14.1156 3.73301 14.582 4.91666 15.4274 5.52024C16.1867 6.05987 16.8057 6.77337 17.2329 7.60113C17.6601 8.42888 17.883 9.34689 17.8829 10.2784C17.8829 12.8992 16.1515 15.1099 13.7649 15.853V14.3546C13.7649 13.8865 13.579 13.4376 13.2479 13.1067C12.9169 12.7757 12.4681 12.5897 12 12.5897V22.0001ZM12 12.0015C12.4681 12.0015 12.9169 11.8155 13.2479 11.4846C13.579 11.1536 13.7649 10.7046 13.7649 10.2365C13.7649 9.76844 13.579 9.31957 13.2479 8.98862C12.9169 8.65764 12.4681 8.47171 12 8.47171V12.0015Z" fill="white"/>
</svg>

<svg xmlns="http://www.w3.org/2000/svg" width="24" height="24" fill="none" viewBox="0 0 24 24">
    <path fill="#fff" fill-rule="evenodd" d="M15.388 5.422c-.818-.579-1.25-1.739-.676-2.561.482-.693 1.39-.975 2.12-.549 2.747 1.609 4.58 4.483 4.58 7.919 0 4.594-3.292 8.421-7.647 9.247v.753a1.764 1.764 0 1 1-3.53 0v-.753c-4.355-.826-7.648-4.652-7.648-9.248 0-3.482 1.89-6.43 4.7-8.036.738-.42 1.647-.126 2.126.575.577.844.115 2.024-.728 2.6a5.88 5.88 0 0 0-2.568 4.862 5.89 5.89 0 0 0 4.118 5.613v-1.496a1.765 1.765 0 0 1 3.53 0v1.496a5.886 5.886 0 0 0 1.623-10.422m-1.623 4.814a1.764 1.764 0 1 1-3.529 0 1.764 1.764 0 0 1 3.529 0" clip-rule="evenodd"/>
    <path fill="#fff" fill-rule="evenodd" d="M12 22a1.765 1.765 0 0 0 1.765-1.765v-.75c4.355-.823 7.648-4.634 7.648-9.207a9.44 9.44 0 0 0-4.474-8.026c-.777-.48-1.76-.156-2.259.61-.564.871-.098 2.055.747 2.658a5.84 5.84 0 0 1 2.456 4.758c0 2.621-1.732 4.832-4.118 5.575v-1.498A1.764 1.764 0 0 0 12 12.59zm0-9.998a1.765 1.765 0 0 0 0-3.53z" clip-rule="evenodd"/>
</svg>
